X: 3249
T: Hamborger Zweitritt
B:[[Notböcker/Melodier til gamle danske Almuedanse for Violin solo]]
O:Danmark
Z:Søren Bak Vestergaard
M: 2/4
L: 1/8
K: D
a/b/a/g/ fe|g/f/e (.f.d)|a/b/a/g/ fe|g/f/e d2:|
|:(3(gfe) (3(fed)|(3(gfe) (3(fed)|a/b/a/g/ fe|g/f/e d2:|
(:musicend:)
(:music:)
